X: 1
T: The Glenburnie Rant
R: reel
Z: John Chambers <jc@trillian.mit.edu>
M: C|
L: 1/8
K: Em
B, |: "Em"E2EF E2E2 | "D"DEFG AFDF | "Em"E2EF E2B2 | "B7"efe^d "Em"e2 :|
B  [| "Em"e2ef g2fe | "D"defg afdf | "Em"e2ef g2fe | "B7"efe^d "Em"e2B2 ||
B  || "Em"e2ef g2fe | "D"defg afdf | "G"g2ag "D"f2gf | "B7"efe^d "Em"e2 |]
